icons/mimetypes/64/application-vnd.visio.svg

<?xml version="1.0" encoding="UTF-8" standalone="no"?>
<svg
   xmlns:dc="http://purl.org/dc/elements/1.1/"
   xmlns:cc="http://creativecommons.org/ns#"
   xmlns:rdf="http://www.w3.org/1999/02/22-rdf-syntax-ns#"
   xmlns:svg="http://www.w3.org/2000/svg"
   xmlns="http://www.w3.org/2000/svg"
   xmlns:xlink="http://www.w3.org/1999/xlink"
   xmlns:sodipodi="http://sodipodi.sourceforge.net/DTD/sodipodi-0.dtd"
   xmlns:inkscape="http://www.inkscape.org/namespaces/inkscape"
   viewBox="0 0 64 64"
   id="svg2"
   version="1.1"
   inkscape:version="0.91 r13725"
   sodipodi:docname="application-vnd.visio.svg"
   width="64"
   height="64">
  <metadata
     id="metadata84">
    <rdf:RDF>
      <cc:Work
         rdf:about="">
        <dc:format>image/svg+xml</dc:format>
        <dc:type
           rdf:resource="http://purl.org/dc/dcmitype/StillImage" />
        <dc:title />
      </cc:Work>
    </rdf:RDF>
  </metadata>
  <sodipodi:namedview
     pagecolor="#ffffff"
     bordercolor="#666666"
     borderopacity="1"
     objecttolerance="10"
     gridtolerance="10"
     guidetolerance="10"
     inkscape:pageopacity="0"
     inkscape:pageshadow="2"
     inkscape:window-width="1920"
     inkscape:window-height="1006"
     id="namedview82"
     showgrid="true"
     inkscape:showpageshadow="false"
     inkscape:zoom="6.1003206"
     inkscape:cx="14.387452"
     inkscape:cy="30.409162"
     inkscape:window-x="0"
     inkscape:window-y="0"
     inkscape:window-maximized="1"
     inkscape:current-layer="svg2"
     showguides="true"
     inkscape:object-nodes="true">
    <inkscape:grid
       type="xygrid"
       id="grid3413" />
    <sodipodi:guide
       position="0,64"
       orientation="64,0"
       id="guide3482" />
    <sodipodi:guide
       position="0,0"
       orientation="0,64"
       id="guide3484" />
    <sodipodi:guide
       position="64,0"
       orientation="-64,0"
       id="guide3486" />
    <sodipodi:guide
       position="64,64"
       orientation="0,-64"
       id="guide3488" />
    <sodipodi:guide
       position="10,61"
       orientation="58,0"
       id="guide3492" />
    <sodipodi:guide
       position="-50,0"
       orientation="0,44"
       id="guide3494" />
    <sodipodi:guide
       position="54,3"
       orientation="-58,0"
       id="guide3496" />
    <sodipodi:guide
       position="54,61"
       orientation="0,-44"
       id="guide3498" />
    <sodipodi:guide
       position="54,47"
       orientation="-14,0"
       id="guide4310" />
    <sodipodi:guide
       position="54,61"
       orientation="0,-14"
       id="guide4312" />
    <sodipodi:guide
       position="21,43"
       orientation="22,0"
       id="guide4250" />
    <sodipodi:guide
       position="21,21"
       orientation="0,22"
       id="guide4252" />
    <sodipodi:guide
       position="43,21"
       orientation="-22,0"
       id="guide4254" />
    <sodipodi:guide
       position="43,43"
       orientation="0,-22"
       id="guide4256" />
  </sodipodi:namedview>
  <defs
     id="defs4">
    <linearGradient
       id="linearGradient4300-2">
      <stop
         style="stop-color:#3a539b;stop-opacity:1"
         offset="0"
         id="stop4302-4" />
      <stop
         style="stop-color:#3f5aa9;stop-opacity:1"
         offset="1"
         id="stop4304-1" />
    </linearGradient>
    <linearGradient
       inkscape:collect="always"
       xlink:href="#linearGradient4300-2"
       id="linearGradient4306-5"
       y1="61"
       y2="3"
       x2="0"
       gradientUnits="userSpaceOnUse"
       gradientTransform="matrix(1,0,0,-1,0,64)" />
    <linearGradient
       inkscape:collect="always"
       xlink:href="#linearGradient4410"
       id="linearGradient4427-5"
       y1="17"
       x1="40"
       y2="31"
       x2="54"
       gradientUnits="userSpaceOnUse" />
    <linearGradient
       inkscape:collect="always"
       id="linearGradient4410">
      <stop
         style="stop-color:#383e51"
         id="stop4412" />
      <stop
         offset="1"
         style="stop-color:#655c6f;stop-opacity:0"
         id="stop4414" />
    </linearGradient>
    <linearGradient
       id="linearGradient6251"
       inkscape:collect="always">
      <stop
         id="stop6253"
         offset="0"
         style="stop-color:#ffffff;stop-opacity:0" />
      <stop
         id="stop6255"
         offset="1"
         style="stop-color:#ffffff;stop-opacity:0.2" />
    </linearGradient>
    <linearGradient
       inkscape:collect="always"
       xlink:href="#linearGradient6251"
       id="linearGradient4306-5-6"
       y1="2.6424115"
       y2="61"
       x2="5"
       gradientUnits="userSpaceOnUse"
       gradientTransform="matrix(1,0,0,-1,0,64)"
       x1="5" />
  </defs>
  <path
     inkscape:connector-curvature="0"
     style="fill:url(#linearGradient4306-5);fill-opacity:1.0"
     id="rect3500-9"
     d="m 10,61 0,-58 30,0 14,14 0,30 0,14 -14,0 -30,0 z" />
  <rect
     width="30"
     x="10"
     y="-4"
     height="1"
     style="fill:#ffffff;fill-opacity:1;opacity:0.5"
     id="rect4169-2"
     transform="scale(1,-1)" />
  <rect
     width="44"
     x="10"
     y="-61"
     height="1"
     style="fill:#000000;fill-opacity:1;opacity:0.25"
     id="rect4236-8"
     transform="scale(1,-1)" />
  <path
     inkscape:connector-curvature="0"
     style="fill:#ffffff;fill-opacity:1;fill-rule:evenodd;opacity:0.5"
     id="path4314-9"
     d="M 54,17 40,3 40,17 Z" />
  <path
     inkscape:connector-curvature="0"
     style="opacity:0.2;fill:url(#linearGradient4427-5);fill-rule:evenodd"
     id="path4320-7"
     d="M 40,17 54,31 54,17 Z" />
  <path
     style="fill:#ffffff;fill-opacity:1;opacity:0.75"
     d="M 22 22 C 21.446 22 21 22.446 21 23 L 21 43 C 21 43.554 21.446 44 22 44 L 42 44 C 42.554 44 43 43.554 43 43 L 43 23 C 43 22.446 42.554 22 42 22 L 22 22 z M 22 23 L 42 23 L 42 43 L 22 43 L 22 23 z M 37.5 24.5 L 35 27 L 28.949219 27 A 2.5 2.5 0 0 0 26.5 25 A 2.5 2.5 0 0 0 24 27.5 A 2.5 2.5 0 0 0 26 29.945312 L 26 38 L 26 39 L 30 39 L 30 41 L 35 41 L 35 39 L 38 39 L 38 38 L 38 30 L 40.5 27.5 L 37.5 24.5 z M 37.5 25.699219 L 39.300781 27.5 L 37.5 29.300781 L 36 27.800781 L 36 27.199219 L 37.5 25.699219 z M 26.5 26 A 1.5 1.5 0 0 1 28 27.5 A 1.5 1.5 0 0 1 26.5 29 A 1.5 1.5 0 0 1 25 27.5 A 1.5 1.5 0 0 1 26.5 26 z M 28.945312 28 L 35 28 L 37 30 L 37 38 L 35 38 L 35 36 L 30 36 L 30 38 L 27 38 L 27 29.949219 A 2.5 2.5 0 0 0 28.945312 28 z M 31 37 L 34 37 L 34 40 L 31 40 L 31 37 z "
     id="rect4167" />
  <rect
     width="0"
     x="-20.415064"
     y="27.999973"
     height="10.999983"
     style="fill:#ffffff"
     id="rect4035-75" />
  <rect
     width="0"
     x="-20.735834"
     y="26.999973"
     height="10.999983"
     style="fill:#ffffff"
     id="rect4035-4-3" />
  <rect
     width="0"
     x="-22.271692"
     y="26.886143"
     height="11.1139"
     style="fill:#fbd2bf"
     id="rect4035-3-56" />
  <rect
     width="0"
     x="-20.735834"
     y="26.999973"
     height="10.999983"
     style="fill:#fbd2bf"
     id="rect4035-1-2" />
  <rect
     width="0"
     x="-20.735834"
     y="26.999973"
     height="10.999983"
     style="fill:#fbfbfb"
     id="rect4035-5-9" />
  <rect
     width="0"
     x="-20.415064"
     y="27.999973"
     height="10.999983"
     style="fill:#ffffff"
     id="rect4035-7-1" />
  <rect
     width="0"
     x="-20.735834"
     y="26.999973"
     height="10.999983"
     style="fill:#ffffff"
     id="rect4035-4-53" />
  <rect
     width="0"
     x="-22.271692"
     y="26.886143"
     height="11.1139"
     style="fill:#fbd2bf"
     id="rect4035-3-5" />
  <rect
     width="0"
     x="-20.735834"
     y="26.999973"
     height="10.999983"
     style="fill:#fbd2bf"
     id="rect4035-1-6" />
  <rect
     width="0"
     x="-20.735834"
     y="26.999973"
     height="10.999983"
     style="fill:#fbfbfb"
     id="rect4035-5-2" />
  <rect
     width="0"
     x="-20.415064"
     y="27.999973"
     height="10.999983"
     style="fill:#ffffff"
     id="rect4035-53" />
  <rect
     width="0"
     x="-20.735834"
     y="26.999973"
     height="10.999983"
     style="fill:#ffffff"
     id="rect4035-4-5" />
  <rect
     width="0"
     x="-20.415064"
     y="27.999973"
     height="10.999983"
     style="fill:#ffffff"
     id="rect4035-6" />
  <rect
     width="0"
     x="-20.735834"
     y="26.999973"
     height="10.999983"
     style="fill:#ffffff"
     id="rect4035-4-2" />
  <rect
     width="0"
     x="-22.271692"
     y="26.886143"
     height="11.1139"
     style="fill:#fbd2bf"
     id="rect4035-3-9" />
  <rect
     width="0"
     x="-20.735834"
     y="26.999973"
     height="10.999983"
     style="fill:#fbd2bf"
     id="rect4035-1-1" />
  <rect
     width="0"
     x="-20.735834"
     y="26.999973"
     height="10.999983"
     style="fill:#fbfbfb"
     id="rect4035-5-27" />
  <rect
     width="0"
     x="-20.735834"
     y="26.999973"
     height="10.999983"
     style="fill:#fffcf9"
     id="rect4035-8-0" />
  <rect
     width="0"
     x="-20.735834"
     y="26.999973"
     height="10.999983"
     style="fill:#e8d9eb"
     id="rect4035-44" />
  <rect
     width="0"
     x="-20.735834"
     y="26.999973"
     height="10.999983"
     style="fill:#e8d9eb"
     id="rect4035-7" />
  <rect
     width="0"
     x="-20.415064"
     y="27.999973"
     height="10.999983"
     style="fill:#ffffff"
     id="rect4035-753" />
  <rect
     width="0"
     x="-20.735834"
     y="26.999973"
     height="10.999983"
     style="fill:#ffffff"
     id="rect4035-4-56" />
  <rect
     width="0"
     x="-22.271692"
     y="26.886143"
     height="11.1139"
     style="fill:#fbd2bf"
     id="rect4035-3-2" />
  <rect
     width="0"
     x="-20.735834"
     y="26.999973"
     height="10.999983"
     style="fill:#fbd2bf"
     id="rect4035-1-9" />
  <rect
     width="0"
     x="-20.735834"
     y="26.999973"
     height="10.999983"
     style="fill:#fbfbfb"
     id="rect4035-5-1" />
  <rect
     width="0"
     x="-20.735834"
     y="26.999973"
     height="10.999983"
     style="fill:#fffcf9"
     id="rect4035-8-2" />
  <rect
     width="0"
     x="-20.415064"
     y="27.999973"
     height="10.999983"
     style="fill:#ffffff"
     id="rect4035" />
  <rect
     width="0"
     x="-20.735834"
     y="26.999973"
     height="10.999983"
     style="fill:#ffffff"
     id="rect4035-4" />
  <rect
     width="0"
     x="-22.271692"
     y="26.886143"
     height="11.1139"
     style="fill:#fbd2bf"
     id="rect4035-3" />
  <rect
     width="0"
     x="-20.735834"
     y="26.999973"
     height="10.999983"
     style="fill:#fbd2bf"
     id="rect4035-1" />
  <rect
     width="0"
     x="-20.735834"
     y="26.999973"
     height="10.999983"
     style="fill:#fbfbfb"
     id="rect4035-5" />
  <rect
     width="0"
     x="-20.735834"
     y="26.999973"
     height="10.999983"
     style="fill:#fffcf9"
     id="rect4035-8" />
  <path
     inkscape:connector-curvature="0"
     style="fill:url(#linearGradient4306-5-6);fill-opacity:1"
     id="rect3500-9-6"
     d="m 10,61 0,-58 30,0 14,14 0,30 0,14 -14,0 -30,0 z" />
</svg>

<?xml version="1.0" encoding="UTF-8" standalone="no"?>
<svg
   xmlns:dc="http://purl.org/dc/elements/1.1/"
   xmlns:cc="http://creativecommons.org/ns#"
   xmlns:rdf="http://www.w3.org/1999/02/22-rdf-syntax-ns#"
   xmlns:svg="http://www.w3.org/2000/svg"
   xmlns="http://www.w3.org/2000/svg"
   xmlns:xlink="http://www.w3.org/1999/xlink"
   xmlns:sodipodi="http://sodipodi.sourceforge.net/DTD/sodipodi-0.dtd"
   xmlns:inkscape="http://www.inkscape.org/namespaces/inkscape"
   viewBox="0 0 64 64"
   id="svg2"
   version="1.1"
   inkscape:version="0.91 r13725"
   sodipodi:docname="application-vnd.visio.svg"
   width="64"
   height="64">
  <metadata
     id="metadata84">
    <rdf:RDF>
      <cc:Work
         rdf:about="">
        <dc:format>image/svg+xml</dc:format>
        <dc:type
           rdf:resource="http://purl.org/dc/dcmitype/StillImage" />
        <dc:title />
      </cc:Work>
    </rdf:RDF>
  </metadata>
  <sodipodi:namedview
     pagecolor="#ffffff"
     bordercolor="#666666"
     borderopacity="1"
     objecttolerance="10"
     gridtolerance="10"
     guidetolerance="10"
     inkscape:pageopacity="0"
     inkscape:pageshadow="2"
     inkscape:window-width="1360"
     inkscape:window-height="708"
     id="namedview82"
     showgrid="true"
     inkscape:showpageshadow="false"
     inkscape:zoom="6.1003206"
     inkscape:cx="38.156695"
     inkscape:cy="30.409162"
     inkscape:window-x="0"
     inkscape:window-y="0"
     inkscape:window-maximized="1"
     inkscape:current-layer="svg2"
     showguides="true"
     inkscape:object-nodes="true">
    <inkscape:grid
       type="xygrid"
       id="grid3413" />
    <sodipodi:guide
       position="0,64"
       orientation="64,0"
       id="guide3482" />
    <sodipodi:guide
       position="0,0"
       orientation="0,64"
       id="guide3484" />
    <sodipodi:guide
       position="64,0"
       orientation="-64,0"
       id="guide3486" />
    <sodipodi:guide
       position="64,64"
       orientation="0,-64"
       id="guide3488" />
    <sodipodi:guide
       position="10,61"
       orientation="58,0"
       id="guide3492" />
    <sodipodi:guide
       position="-50,0"
       orientation="0,44"
       id="guide3494" />
    <sodipodi:guide
       position="54,3"
       orientation="-58,0"
       id="guide3496" />
    <sodipodi:guide
       position="54,61"
       orientation="0,-44"
       id="guide3498" />
    <sodipodi:guide
       position="54,47"
       orientation="-14,0"
       id="guide4310" />
    <sodipodi:guide
       position="54,61"
       orientation="0,-14"
       id="guide4312" />
    <sodipodi:guide
       position="21,43"
       orientation="22,0"
       id="guide4250" />
    <sodipodi:guide
       position="21,21"
       orientation="0,22"
       id="guide4252" />
    <sodipodi:guide
       position="43,21"
       orientation="-22,0"
       id="guide4254" />
    <sodipodi:guide
       position="43,43"
       orientation="0,-22"
       id="guide4256" />
  </sodipodi:namedview>
  <defs
     id="defs4">
    <linearGradient
       id="linearGradient4351-8"
       inkscape:collect="always">
      <stop
         id="stop4353-9"
         offset="0"
         style="stop-color:#97aad8;stop-opacity:1" />
      <stop
         id="stop4355-7"
         offset="1"
         style="stop-color:#c1cae7;stop-opacity:1" />
    </linearGradient>
    <linearGradient
       id="linearGradient4300-2">
      <stop
         style="stop-color:#3a539b;stop-opacity:1"
         offset="0"
         id="stop4302-4" />
      <stop
         style="stop-color:#3f5aa9;stop-opacity:1"
         offset="1"
         id="stop4304-1" />
    </linearGradient>
    <linearGradient
       inkscape:collect="always"
       xlink:href="#linearGradient4300-2"
       id="linearGradient4306-5"
       y1="61"
       y2="3"
       x2="0"
       gradientUnits="userSpaceOnUse"
       gradientTransform="matrix(1,0,0,-1,0,64)" />
    <linearGradient
       inkscape:collect="always"
       xlink:href="#linearGradient4351-8"
       id="linearGradient4357-8"
       y1="61"
       y2="47"
       x2="0"
       gradientUnits="userSpaceOnUse"
       gradientTransform="matrix(1,0,0,-1,0,64)" />
    <linearGradient
       inkscape:collect="always"
       xlink:href="#linearGradient4410"
       id="linearGradient4427-5"
       y1="17"
       x1="40"
       y2="31"
       x2="54"
       gradientUnits="userSpaceOnUse" />
    <linearGradient
       inkscape:collect="always"
       id="linearGradient4410">
      <stop
         style="stop-color:#383e51"
         id="stop4412" />
      <stop
         offset="1"
         style="stop-color:#655c6f;stop-opacity:0"
         id="stop4414" />
    </linearGradient>
  </defs>
  <path
     inkscape:connector-curvature="0"
     style="fill:url(#linearGradient4306-5);fill-opacity:1.0"
     id="rect3500-9"
     d="m 10,61 0,-58 30,0 14,14 0,30 0,14 -14,0 -30,0 z" />
  <rect
     width="30"
     x="10"
     y="-4"
     height="1"
     style="fill:#ffffff;fill-opacity:0.41176471"
     id="rect4169-2"
     transform="scale(1,-1)" />
  <rect
     width="44"
     x="10"
     y="-61"
     height="1"
     style="fill:#2e3132;fill-opacity:0.29411765"
     id="rect4236-8"
     transform="scale(1,-1)" />
  <path
     inkscape:connector-curvature="0"
     style="fill:url(#linearGradient4357-8);fill-opacity:1.0;fill-rule:evenodd"
     id="path4314-9"
     d="M 54,17 40,3 40,17 Z" />
  <path
     inkscape:connector-curvature="0"
     style="opacity:0.2;fill:url(#linearGradient4427-5);fill-rule:evenodd"
     id="path4320-7"
     d="M 40,17 54,31 54,17 Z" />
  <path
     style="fill:#ffffff;fill-opacity:1"
     d="m 22,22 c -0.554,0 -1,0.446 -1,1 l 0,20 c 0,0.554 0.446,1 1,1 l 20,0 c 0.554,0 1,-0.446 1,-1 l 0,-20 c 0,-0.554 -0.446,-1 -1,-1 l -20,0 z m 0,1 20,0 0,20 -20,0 0,-20 z"
     id="rect4167"
     inkscape:connector-curvature="0" />
  <path
     style="fill:#ffffff;fill-opacity:1"
     d="M 37.5,24.5 35,27 28.949219,27 A 2.5,2.5 0 0 0 26.5,25 2.5,2.5 0 0 0 24,27.5 2.5,2.5 0 0 0 26,29.945312 L 26,38 l 0,1 4,0 0,2 5,0 0,-2 3,0 0,-1 0,-8 2.5,-2.5 -3,-3 z m 0,1.199219 L 39.300781,27.5 37.5,29.300781 l -1.5,-1.5 0,-0.601562 1.5,-1.5 z M 26.5,26 A 1.5,1.5 0 0 1 28,27.5 1.5,1.5 0 0 1 26.5,29 1.5,1.5 0 0 1 25,27.5 1.5,1.5 0 0 1 26.5,26 Z M 28.945312,28 35,28 l 2,2 0,8 -2,0 0,-2 -5,0 0,2 -3,0 0,-8.050781 A 2.5,2.5 0 0 0 28.945312,28 Z M 31,37 l 3,0 0,3 -3,0 0,-3 z"
     id="rect4178"
     inkscape:connector-curvature="0" />
</svg>
